X:1
T:St. Alkmund, LM
T:St. Alkmund, LM
T:Easy Music for Church Choirs, 1853
T:Public Domain Courtesy of the Cyber Hymnal™
C:Easy Music for Church Choirs, 1853
Z:Public Domain
Z:Courtesy of the Cyber Hymnal™
%%score ( 1 2 ) ( 3 4 )
L:1/8
Q:1/4=115
M:3/4
K:G
V:1 treble 
V:2 treble 
V:3 bass 
V:4 bass 
V:1
 [DG]2 | (B2 A2) G2 | c2 [GB]2 [EA]2 | (G2 A2) [DF]2 | [DG]4 [DF]2 | [DG]4 A2 | [GB]2 [Dc]2 B2 | %7
 (B2 A2) [EG]2 | !fermata![DF]4 [DG]2 | [DB]2 A2 G2 | ([Cc]2 [DB]2) [EA]2 | (A2 B2) [FA]2 | G4 G2 | %13
 [EA]4 [EB]2 | (c2 B2) [EA]2 | (G2 A2) [DF]2 | [DG]4 |] %17
V:2
 x2 | D4 G2 | (GA) x4 | D4 x2 | x6 | x4 (EF) | x4 (GF) | E4 x2 | x6 | x2 (EF) G2 | x6 | F4 x2 | %12
 G4 G2 | x6 | E4 x2 | D4 x2 | x4 |] %17
V:3
 [G,B,]2 | (D2 C2) [G,B,]2 | E2 [G,D]2 [C,C]2 | (B,2 C2) [D,A,]2 | [G,B,]4 [A,C]2 | [B,D]4 [A,C]2 | %6
 [G,B,]2 [F,A,]2 [G,B,]2 | [B,,C]4 [E,B,]2 | !fermata![D,D]4 [G,B,]2 | (D2 C2) ([G,B,][F,A,]) | %10
 G,4 [C,E]2 | [D,D]4 [D,C]2 | [E,B,]4 [E,B,]2 | [C,A,]4 [B,,^G,]2 | ([A,,A,]2 [B,,D]2) [C,C]2 | %15
 (B,2 C2) [D,A,]2 | [G,,B,]4 |] %17
V:4
 x2 | G,4 x2 | (E,F,) x4 | D,4 x2 | x6 | x6 | x6 | x6 | x6 | G,4 x2 | (E,2 D,2) x2 | x6 | x6 | x6 | %14
 x6 | D,4 x2 | x4 |] %17

